!!!!SEGMENT: pl-cz--iii-563--001-007_raszek-waclaw--missa-ex-dis-pleni-sunt.krn
!!!cenid: 17xx:1076
!!!COM: Raszek, Wacław
!!!COM-rismID:
!!!CDT: <1848->1848
!!!CNT:
!!!OPR: Missa ex Dis
!!!OTL: Pleni sunt
!!!OMV: 007
!!!PDT:
!!!AGN: Sacred; Mass
!!!SMS-siglum: PL-CZ
!!!SMS-shelfmark: III-563
!!!SMS-shelfwork: 001-007 M
!!!SMS-variant:
!!!SMS-altvar:
!!!NIFC-rismSourceID: 300001050
!!!NIFC-islandoraID: pl-cz:39135
!!!URL-pdf-islandora: https://repozytorium.nifc.pl/islandora/object/pl-cz%3A39135/datastream/PDF/view
!!!URL-scan:
!!!ONB-nifc: UWAGA: części Mszy: Kyrie, Gloria, Credo, Et incarnatus, Et resurrexit, Sanctus, Pleni sunt, Benedictus, Agnus Dei, Dona nobis
!!!AIN: 1 alto 1 bass 4 empty 1 organ 1 tenor 1 viola 2 violn 1 vox
!!!key:
**kern	**dynam	**kern	**dynam	**kern	**kern	**kern	**text	**kern	**text	**kern	**text	**kern	**text	**dynam	**kern	**dynam	**kern	**dynam	**kern	**dynam	**kern
*part12	*part12	*part11	*part11	*part10	*part9	*part8	*part8	*part7	*part7	*part6	*part6	*part5	*part5	*part5	*part4	*part4	*part3	*part3	*part2	*part2	*part1
*staff12	*	*staff11	*	*staff10	*staff9	*staff8	*staff8	*staff7	*staff7	*staff6	*staff6	*staff5	*staff5	*	*staff4	*	*staff3	*	*staff2	*	*staff1
*Iorgan	*	*Iviola	*	*Ivioln	*Ivioln	*Ibass	*	*Itenor	*	*Ialto	*	*Ivox	*	*	*Iempty	*	*Iempty	*	*Iempty	*	*Iempty
*I"Organo	*	*I"Viola obligata	*	*I"Violino 2do	*I"Violino Primo	*I"Basso.	*	*I"Tenore.	*	*I"Alto.	*	*I"Canto.	*	*	*I"Cornu Secundo in Dis	*	*I"Cornu Primo in Dis	*	*I"Clarinetto Secondo. in B:	*	*I"Clarinetto Primo. in B:
*I'Org.	*	*I'V-la	*	*I'V-no II	*I'V-no I	*I'B.	*	*I'T.	*	*I'A.	*	*I'C.	*	*	*I'C. II	*	*I'C. I	*	*I'Cl. II	*	*I'Cl. I
*clefF4	*	*clefC3	*	*clefG2	*clefG2	*clefF4	*	*clefC4	*	*clefC3	*	*clefC1	*	*	*clefG2	*	*clefG2	*	*clefG2	*	*clefG2
*	*	*	*	*	*	*	*	*	*	*	*	*	*	*	*ITrd5c9	*	*ITrd5c9	*	*ITrd1c2	*	*ITrd1c2
*k[b-e-a-]	*	*k[b-e-a-]	*	*k[b-e-a-]	*k[b-e-a-]	*k[b-e-a-]	*	*k[b-e-a-]	*	*k[b-e-a-]	*	*k[b-e-a-]	*	*	*k[b-e-a-]	*	*k[b-e-a-]	*	*k[b-e-a-]	*	*k[b-e-a-]
*E-:	*	*E-:	*	*E-:	*E-:	*E-:	*	*E-:	*	*E-:	*	*E-:	*	*	*E-:	*	*E-:	*	*E-:	*	*E-:
*M4/4	*	*M4/4	*	*M4/4	*M4/4	*M4/4	*	*M4/4	*	*M4/4	*	*M4/4	*	*	*M4/4	*	*M4/4	*	*M4/4	*	*M4/4
*met(c)	*	*met(c)	*	*met(c)	*met(c)	*met(c)	*	*met(c)	*	*met(c)	*	*met(c)	*	*	*met(c)	*	*met(c)	*	*met(c)	*	*met(c)
=1	=1	=1	=1	=1	=1	=1	=1	=1	=1	=1	=1	=1	=1	=1	=1	=1	=1	=1	=1	=1	=1
!	!	!	!	!	!	!	!	!	!	!	!	!	!	!	!	!	!	!	!	!	!LO:TX:t=P:problem=w źródle brak partii Clarinetto primo
!	!	!	!	!	!	!LO:TX:a:Bi:t=all	!	!	!	!	!	!	!	!	!	!	!LO:TX:a:t=in Dis	!	!	!	!
!LO:TX:a:Bi:t=allo	!	!LO:TX:a:Bi:t=allo	!	!LO:TX:a:Bi:t=all&colon;	!LO:TX:a:Bi:t=all&colon;	!	!	!LO:TX:a:Bi:t=all&colon;	!	!LO:TX:a:Bi:t=all&colon;	!	!LO:TX:a:Bi:t=allo	!	!	!LO:TX:a:Bi:t=allo	!	!LO:TX:a:Bi:t=allo	!	!LO:TX:a:Bi:t=allo.	!	!
!	!LO:DY:a	!	!LO:DY:a	!	!	!	!	!	!	!	!	!	!	!LO:DY:a	!	!LO:DY:a	!	!LO:DY:a	!	!LO:DY:a	!
4G\	f	4g\	f	16G/LL	8g/L	2G\	Ple-	4G/	Ple-	2g\	Ple-	8g\L	Ple-	f	4G/	f	4g\	f	8g\L	f	1ryy
.	.	.	.	16g/	.	.	.	.	.	.	.	.	.	.	.	.	.	.	.	.	.
.	.	.	.	16g/	8an/	.	.	.	.	.	.	8an\J	.	.	.	.	.	.	8a-\	.	.
.	.	.	.	16g/JJ	.	.	.	.	.	.	.	.	.	.	.	.	.	.	.	.	.
4GG/	.	8G/L	.	16g/LL	8bn/	.	.	8G/	-ni	.	.	8bn\	-ni	.	8G/L	.	8g\L	.	8bX\	.	.
.	.	.	.	16g/	.	.	.	.	.	.	.	.	.	.	.	.	.	.	.	.	.
.	.	8A-/J	.	16g/	8cc/J	.	.	8An/	sunt	.	.	8cc\	sunt	.	8G/J	.	8g\J	.	8cc\J	.	.
.	.	.	.	16g/JJ	.	.	.	.	.	.	.	.	.	.	.	.	.	.	.	.	.
4r	.	8Bn\L	.	16G/LL	8dd\L	4G\	-ni	8Bn\L	Coe-	4g\	-ni	8dd\L	Coe-	.	4G/	.	4g\	.	4dd\	.	.
.	.	.	.	16g/	.	.	.	.	.	.	.	.	.	.	.	.	.	.	.	.	.
.	.	8c\J	.	16g/	8ee-\J	.	.	8c\J	.	.	.	8ee-\J	.	.	.	.	.	.	.	.	.
.	.	.	.	16g/JJ	.	.	.	.	.	.	.	.	.	.	.	.	.	.	.	.	.
*	*	*	*	*tremolo	*	*	*	*	*	*	*	*	*	*	*	*	*	*	*	*	*
.	.	.	.	.	8qqgg/	.	.	.	.	.	.	.	.	.	.	.	.	.	.	.	.
4GG/	.	8d\L	.	16g/LL	8ff\L	4G\	sunt	8d\	-li	4g\	sunt	8ff\	-li	.	4G/	.	4g\	.	4g/	.	.
.	.	.	.	16g/	.	.	.	.	.	.	.	.	.	.	.	.	.	.	.	.	.
.	.	16c\L	.	16g/	16ee-\L	.	.	8B\	et	.	.	8dd\	et	.	.	.	.	.	.	.	.
.	.	16B\JJ	.	16g/JJ	16dd\JJ	.	.	.	.	.	.	.	.	.	.	.	.	.	.	.	.
*	*	*	*	*Xtremolo	*	*	*	*	*	*	*	*	*	*	*	*	*	*	*	*	*
=2	=2	=2	=2	=2	=2	=2	=2	=2	=2	=2	=2	=2	=2	=2	=2	=2	=2	=2	=2	=2	=2
8C\L	.	4c\	.	16G/LL	4ee-\	8C/L	Coe-	2c\	ter-	2g\	Coe-	4ee-\	ter-	.	1G	.	1g	.	1g	.	1ryy
.	.	.	.	16g/	.	.	.	.	.	.	.	.	.	.	.	.	.	.	.	.	.
8D\	.	.	.	16g/	.	8D/J	.	.	.	.	.	.	.	.	.	.	.	.	.	.	.
.	.	.	.	16g/JJ	.	.	.	.	.	.	.	.	.	.	.	.	.	.	.	.	.
*	*	*	*	*tremolo	*	*	*	*	*	*	*	*	*	*	*	*	*	*	*	*	*
8E-\	.	4c\	.	16g/LL	4cc\	8E-\	-li	.	.	.	.	4cc\	-ra	.	.	.	.	.	.	.	.
.	.	.	.	16g/	.	.	.	.	.	.	.	.	.	.	.	.	.	.	.	.	.
8F\J	.	.	.	16g/	.	8F\	et	.	.	.	.	.	.	.	.	.	.	.	.	.	.
.	.	.	.	16g/JJ	.	.	.	.	.	.	.	.	.	.	.	.	.	.	.	.	.
*	*	*	*	*Xtremolo	*	*	*	*	*	*	*	*	*	*	*	*	*	*	*	*	*
8G\L	.	8r	.	16G/LL	8r	8G\L	ter-	4c\	-ra	4g\	-li	4r	.	.	.	.	.	.	.	.	.
.	.	.	.	16g/	.	.	.	.	.	.	.	.	.	.	.	.	.	.	.	.	.
8E-\	.	8g\L	.	16g/	8cc\L	8E-\J	.	.	.	.	.	.	.	.	.	.	.	.	.	.	.
.	.	.	.	16g/JJ	.	.	.	.	.	.	.	.	.	.	.	.	.	.	.	.	.
*	*	*	*	*tremolo	*	*	*	*	*	*	*	*	*	*	*	*	*	*	*	*	*
8D\	.	8f\	.	16g/LL	8bn\	8D/L	-ra	4c\	glo-	4g\	et	4cc\	et	.	.	.	.	.	.	.	.
.	.	.	.	16g/	.	.	.	.	.	.	.	.	.	.	.	.	.	.	.	.	.
8C\J	.	8e-\J	.	16g/	8cc\J	8C/J	.	.	.	.	.	.	.	.	.	.	.	.	.	.	.
.	.	.	.	16g/JJ	.	.	.	.	.	.	.	.	.	.	.	.	.	.	.	.	.
*	*	*	*	*Xtremolo	*	*	*	*	*	*	*	*	*	*	*	*	*	*	*	*	*
=3	=3	=3	=3	=3	=3	=3	=3	=3	=3	=3	=3	=3	=3	=3	=3	=3	=3	=3	=3	=3	=3
4G\	.	8Bn/L	.	16G/LL	8dd\L	2G\	glo-	8Bn\L	.	2g\	ter-	8dd\L	ter-	.	4G/	.	4g\	.	1g	.	1ryy
.	.	.	.	16g/	.	.	.	.	.	.	.	.	.	.	.	.	.	.	.	.	.
.	.	8An/	.	16g/	8cc\	.	.	8A-\J	.	.	.	8cc\J	.	.	.	.	.	.	.	.	.
.	.	.	.	16g/JJ	.	.	.	.	.	.	.	.	.	.	.	.	.	.	.	.	.
*	*	*	*	*tremolo	*	*	*	*	*	*	*	*	*	*	*	*	*	*	*	*	*
4GG/	.	8G/	.	16g/LL	8bn\	.	.	8G/L	.	.	.	8bn\L	-ra	.	8G/L	.	8g\L	.	.	.	.
.	.	.	.	16g/	.	.	.	.	.	.	.	.	.	.	.	.	.	.	.	.	.
.	.	8A/J	.	16g/	8cc\J	.	.	8A-/J	.	.	.	8cc\J	.	.	8G/J	.	8g\J	.	.	.	.
.	.	.	.	16g/JJ	.	.	.	.	.	.	.	.	.	.	.	.	.	.	.	.	.
*	*	*	*	*Xtremolo	*	*	*	*	*	*	*	*	*	*	*	*	*	*	*	*	*
4r	.	8Bn/L	.	16G/LL	8dd\L	4G\	-ri-	8B\L	.	2g\	-ra	8dd\L	glo-	.	4G/	.	4g\	.	.	.	.
.	.	.	.	16g/	.	.	.	.	.	.	.	.	.	.	.	.	.	.	.	.	.
.	.	8c/J	.	16g/	8ee-\J	.	.	8c\J	.	.	.	8ee-\J	.	.	.	.	.	.	.	.	.
.	.	.	.	16g/JJ	.	.	.	.	.	.	.	.	.	.	.	.	.	.	.	.	.
.	.	.	.	.	8qqgg/	.	.	.	.	.	.	.	.	.	.	.	.	.	.	.	.
*	*	*	*	*tremolo	*	*	*	*	*	*	*	*	*	*	*	*	*	*	*	*	*
4GG/	.	8d\L	.	16g/LL	8ff\L	4G\	-a	8d\	-ri-	.	.	8ff\	-ri-	.	4G/	.	4g\	.	.	.	.
.	.	.	.	16g/	.	.	.	.	.	.	.	.	.	.	.	.	.	.	.	.	.
.	.	16c\L	.	16g/	16ee-\L	.	.	8Bn\	-a	.	.	8cc\	-a	.	.	.	.	.	.	.	.
.	.	16B\JJ	.	16g/JJ	16dd\JJ	.	.	.	.	.	.	.	.	.	.	.	.	.	.	.	.
*	*	*	*	*	*	*	*	*	*	*	*	*	*	*	*	*	*	*	*	*	*
=4	=4	=4	=4	=4	=4	=4	=4	=4	=4	=4	=4	=4	=4	=4	=4	=4	=4	=4	=4	=4	=4
*	*	*tremolo	*	*	*	*	*	*	*	*	*	*	*	*	*	*	*	*	*	*	*
!LO:TX:t=P:problem=mixed beam	!	!	!	!	!	!	!	!	!	!	!	!	!	!	!	!	!	!	!	!	!
8C/L	.	8c\L	.	16g/LL	4ee-\	2c\	tu-	2c\	u-	2g\	glo-	2ee-\	tu-	.	4G/	.	4g\	.	1cc	.	1ryy
.	.	.	.	16g/	.	.	.	.	.	.	.	.	.	.	.	.	.	.	.	.	.
8C/	.	8c\	.	16g/	.	.	.	.	.	.	.	.	.	.	.	.	.	.	.	.	.
.	.	.	.	16g/JJ	.	.	.	.	.	.	.	.	.	.	.	.	.	.	.	.	.
8c\	.	8c\	.	16g/LL	8ee-\L	.	.	.	.	.	.	.	.	.	4r	.	4r	.	.	.	.
.	.	.	.	16g/	.	.	.	.	.	.	.	.	.	.	.	.	.	.	.	.	.
8c\J	.	8c\J	.	16g/	8ee-\J	.	.	.	.	.	.	.	.	.	.	.	.	.	.	.	.
.	.	.	.	16g/JJ	.	.	.	.	.	.	.	.	.	.	.	.	.	.	.	.	.
2An\	.	8c\L	.	16f/LL	8ee-\L	2An\	-a	4c\	-a	4f\	-ri-	4ee-\	-a	.	2r	.	2r	.	.	.	.
.	.	.	.	16f/	.	.	.	.	.	.	.	.	.	.	.	.	.	.	.	.	.
.	.	8c\	.	16f/	16dd\L	.	.	.	.	.	.	.	.	.	.	.	.	.	.	.	.
.	.	.	.	16f/JJ	16ee-\JJ	.	.	.	.	.	.	.	.	.	.	.	.	.	.	.	.
.	.	8c\	.	16f/LL	8ff\L	.	.	4c\	Ple-	4f\	-a	4ee-\	ple-	.	.	.	.	.	.	.	.
.	.	.	.	16f/	.	.	.	.	.	.	.	.	.	.	.	.	.	.	.	.	.
.	.	8c\J	.	16f/	8ee-\J	.	.	.	.	.	.	.	.	.	.	.	.	.	.	.	.
.	.	.	.	16f/JJ	.	.	.	.	.	.	.	.	.	.	.	.	.	.	.	.	.
*	*	*Xtremolo	*	*	*	*	*	*	*	*	*	*	*	*	*	*	*	*	*	*	*
=5	=5	=5	=5	=5	=5	=5	=5	=5	=5	=5	=5	=5	=5	=5	=5	=5	=5	=5	=5	=5	=5
!	!	!	!	!	!	!	!	!	!	!	!	!	!	!	!	!	!LO:TX:a:t=1	!	!	!	!
8B-\L	.	8B-/L	.	16f/LL	16dd\LL	(4BB-/	ple-	4B-X\	-ni	2f\	tu-	4dd\	-ni	.	1r	.	1r	.	4b-\	.	1ryy
.	.	.	.	16f/	16dd\	.	.	.	.	.	.	.	.	.	.	.	.	.	.	.	.
8B-\	.	8B-/J	.	16f/	16dd\	.	.	.	.	.	.	.	.	.	.	.	.	.	.	.	.
.	.	.	.	16f/JJ	16dd\JJ	.	.	.	.	.	.	.	.	.	.	.	.	.	.	.	.
*	*	*	*	*	*tremolo	*	*	*	*	*	*	*	*	*	*	*	*	*	*	*	*
8c\	.	8An/L	.	16f/LL	16cc\LL	4C/)	.	4An\	sunt	.	.	4cc\	sunt	.	.	.	.	.	4r	.	.
.	.	.	.	16f/	16cc\	.	.	.	.	.	.	.	.	.	.	.	.	.	.	.	.
8c\J	.	8A/J	.	16f/	16cc\	.	.	.	.	.	.	.	.	.	.	.	.	.	.	.	.
.	.	.	.	16f/JJ	16cc\JJ	.	.	.	.	.	.	.	.	.	.	.	.	.	.	.	.
8d\L	.	8B-/L	.	16f/LL	16b-/LL	4D\	-ni	(4B-\	Coe-	2f\	-a	(4b-\	Coe-	.	.	.	.	.	4r	.	.
.	.	.	.	16f/	16b-/	.	.	.	.	.	.	.	.	.	.	.	.	.	.	.	.
8d\	.	8B-/	.	16f/	16b-/	.	.	.	.	.	.	.	.	.	.	.	.	.	.	.	.
.	.	.	.	16f/JJ	16b-/JJ	.	.	.	.	.	.	.	.	.	.	.	.	.	.	.	.
8e-\	.	8c/	.	16f/LL	16an/LL	4E-\	sunt	4c\)	.	.	.	4an\)	.	.	.	.	.	.	4cc\	.	.
.	.	.	.	16f/	16an/	.	.	.	.	.	.	.	.	.	.	.	.	.	.	.	.
8e-\J	.	8c/J	.	16f/	16an/	.	.	.	.	.	.	.	.	.	.	.	.	.	.	.	.
.	.	.	.	16f/JJ	16an/JJ	.	.	.	.	.	.	.	.	.	.	.	.	.	.	.	.
*	*	*	*	*	*Xtremolo	*	*	*	*	*	*	*	*	*	*	*	*	*	*	*	*
=6	=6	=6	=6	=6	=6	=6	=6	=6	=6	=6	=6	=6	=6	=6	=6	=6	=6	=6	=6	=6	=6
!	!	!	!	!	!	!	!	!	!	!	!	!	!	!	!	!	!	!	!LO:TX:t=P:problem=zapis niejednoznaczny	!	!
!	!	!	!	!	!	!	!	!	!	!	!	!	!	!	!	!	!	!	!LO:TX:a:t=c	!	!
4d\	.	4B-/	.	16b-/LL	8b-\L	4D/	Coe-	4.B-\	-li	4f\	Ple-	2b-\	-li	.	4B-/	.	4B-/	.	4b-\	.	1ryy
.	.	.	.	16b-/	.	.	.	.	.	.	.	.	.	.	.	.	.	.	.	.	.
.	.	.	.	16b-/	8cc\	.	.	.	.	.	.	.	.	.	.	.	.	.	.	.	.
.	.	.	.	16b-/JJ	.	.	.	.	.	.	.	.	.	.	.	.	.	.	.	.	.
!	!	!	!	!	!	!	!	!	!	!	!	!	!	!	!	!	!	!	!LO:TX:a:t=c	!	!
4B-\	.	8B-/L	.	16b-/LL	8dd\	4BB-/	-li	.	.	8d\	-ni	.	.	.	8B-/L	.	8B-/L	.	2a-\	.	.
.	.	.	.	16b-/	.	.	.	.	.	.	.	.	.	.	.	.	.	.	.	.	.
.	.	8c/J	.	16b-/	8ee-\J	.	.	8c\	et	8e-\	sunt	.	.	.	8B-/J	.	8B-/J	.	.	.	.
.	.	.	.	16b-/JJ	.	.	.	.	.	.	.	.	.	.	.	.	.	.	.	.	.
4r	.	8d\L	.	16b-/LL	8ff\L	4r	.	8d\L	ter-	8f\L	Coe-	2b-\	et	.	4B-/	.	4B-/	.	.	.	.
.	.	.	.	16b-/	.	.	.	.	.	.	.	.	.	.	.	.	.	.	.	.	.
.	.	8e-\J	.	16b-/	8gg\J	.	.	8e-\J	.	8g\J	.	.	.	.	.	.	.	.	.	.	.
.	.	.	.	16b-/JJ	.	.	.	.	.	.	.	.	.	.	.	.	.	.	.	.	.
!	!	!	!	!	!	!	!	!	!	!	!	!	!	!	!	!	!	!	!LO:TX:a:t=c	!	!
.	.	.	.	.	8qqbb-/	.	.	.	.	.	.	.	.	.	.	.	.	.	.	.	.
4BB-/	.	8f\L	.	16b-/LL	8aa-\L	4BB-/	et	8f\L	.	8a-\	-li	.	.	.	4B-/	.	4B-/	.	4b-\	.	.
.	.	.	.	16b-/	.	.	.	.	.	.	.	.	.	.	.	.	.	.	.	.	.
.	.	16e-\L	.	16b-/	16gg\L	.	.	8d\J	.	8f\	et	.	.	.	.	.	.	.	.	.	.
.	.	16d\JJ	.	16b-/JJ	16ff\JJ	.	.	.	.	.	.	.	.	.	.	.	.	.	.	.	.
=7	=7	=7	=7	=7	=7	=7	=7	=7	=7	=7	=7	=7	=7	=7	=7	=7	=7	=7	=7	=7	=7
8E-\L	.	4e-\	.	16b-/LL	4gg\	8E-\L	ter-	2e-\	.	4g\	ter-	2b-\	ter-	.	1B-	.	1B-	.	1b-	.	1ryy
.	.	.	.	16b-/	.	.	.	.	.	.	.	.	.	.	.	.	.	.	.	.	.
8F\	.	.	.	16b-/	.	8F\J	.	.	.	.	.	.	.	.	.	.	.	.	.	.	.
.	.	.	.	16b-/JJ	.	.	.	.	.	.	.	.	.	.	.	.	.	.	.	.	.
8G\	.	4e-\	.	16b-/LL	4ee-\	8G\L	-ra	.	.	4e-\	-ra	.	.	.	.	.	.	.	.	.	.
.	.	.	.	16b-/	.	.	.	.	.	.	.	.	.	.	.	.	.	.	.	.	.
8A-\J	.	.	.	16b-/	.	8A-\J	.	.	.	.	.	.	.	.	.	.	.	.	.	.	.
.	.	.	.	16b-/JJ	.	.	.	.	.	.	.	.	.	.	.	.	.	.	.	.	.
8B-\L	.	8r	.	16b-/LL	8r	8B-\L	glo-	4B-\	-ra	4r	.	2b-\	-ra	.	.	.	.	.	.	.	.
.	.	.	.	16b-/	.	.	.	.	.	.	.	.	.	.	.	.	.	.	.	.	.
8G\	.	8b-\L	.	16b-/	8ee-\L	8G\J	.	.	.	.	.	.	.	.	.	.	.	.	.	.	.
.	.	.	.	16b-/JJ	.	.	.	.	.	.	.	.	.	.	.	.	.	.	.	.	.
8F\	.	8a-\	.	16b-/LL	8dd\	8F\	-ri	4r	.	4e-\	o	.	.	.	.	.	.	.	.	.	.
.	.	.	.	16b-/	.	.	.	.	.	.	.	.	.	.	.	.	.	.	.	.	.
!	!	!	!	!	!	!LO:TX:t=P:problem=ucięta strona	!	!	!	!	!	!	!	!	!	!	!	!	!	!	!
8E-\J	.	8g\J	.	16b-/	8ee-\J	8ryy	.	.	.	.	.	.	.	.	.	.	.	.	.	.	.
.	.	.	.	16b-/JJ	.	.	.	.	.	.	.	.	.	.	.	.	.	.	.	.	.
=8	=8	=8	=8	=8	=8	=8	=8	=8	=8	=8	=8	=8	=8	=8	=8	=8	=8	=8	=8	=8	=8
!	!	!	!	!	!	!	!	!	!	!LO:TX:t=P:rep:problem	!	!	!	!	!	!	!	!	!	!	!
4B-\	.	8d\L	.	16b-/LL	8ff\L	4BB-/	tu-	8d\L	glo-	4f\	Ple-	2b-\	glo-	.	4B-/	.	4B-/	.	1b-	.	1ryy
.	.	.	.	16b-/	.	.	.	.	.	.	.	.	.	.	.	.	.	.	.	.	.
.	.	8c\	.	16b-/	8ee-\	.	.	8c\	.	.	.	.	.	.	.	.	.	.	.	.	.
.	.	.	.	16b-/JJ	.	.	.	.	.	.	.	.	.	.	.	.	.	.	.	.	.
4BB-/	.	8B-\	.	16b-/LL	8dd\	4BB-/	-a	8B-\	.	8d\	-ni	.	.	.	8B-/L	.	8B-/L	.	.	.	.
.	.	.	.	16b-/	.	.	.	.	.	.	.	.	.	.	.	.	.	.	.	.	.
.	.	8c\J	.	16b-/	8ee-\J	.	.	8c\J	.	8e-\	sunt	.	.	.	8B-/J	.	8B-/J	.	.	.	.
.	.	.	.	16b-/JJ	.	.	.	.	.	.	.	.	.	.	.	.	.	.	.	.	.
4r	.	8d\L	.	16b-/LL	8ff\L	4r	.	8d\L	.	8f\L	coe-	4b-\	-ri-	.	4B-/	.	4B-/	.	.	.	.
.	.	.	.	16b-/	.	.	.	.	.	.	.	.	.	.	.	.	.	.	.	.	.
.	.	8e-\J	.	16b-/	8gg\J	.	.	8e-\	.	8g\J	.	.	.	.	.	.	.	.	.	.	.
.	.	.	.	16b-/JJ	.	.	.	.	.	.	.	.	.	.	.	.	.	.	.	.	.
.	.	.	.	.	8qqbb-/	.	.	.	.	.	.	.	.	.	.	.	.	.	.	.	.
4BB-/	.	8f\L	.	16b-/LL	8aa-\L	4BB-/	o-	8f\J	.	8a-\	-li	4b-\	-a	.	4B-/	.	4B-/	.	.	.	.
.	.	.	.	16b-/	.	.	.	.	.	.	.	.	.	.	.	.	.	.	.	.	.
.	.	16e-\L	.	16b-/	16gg\L	.	.	16e-\	-ri-	8f\	et	.	.	.	.	.	.	.	.	.	.
.	.	16d\JJ	.	16b-/JJ	16ff\JJ	.	.	16d\	-a	.	.	.	.	.	.	.	.	.	.	.	.
=9	=9	=9	=9	=9	=9	=9	=9	=9	=9	=9	=9	=9	=9	=9	=9	=9	=9	=9	=9	=9	=9
8E-\L	.	4e-\	.	16b-/LL	4gg\	8E-\L	-san-	2e-\	tu-	4g\	ter-	2b-\	tu-	.	1B-	.	1B-	.	1b-	.	1ryy
.	.	.	.	16b-/	.	.	.	.	.	.	.	.	.	.	.	.	.	.	.	.	.
8F\	.	.	.	16b-/	.	8F\J	.	.	.	.	.	.	.	.	.	.	.	.	.	.	.
.	.	.	.	16b-/JJ	.	.	.	.	.	.	.	.	.	.	.	.	.	.	.	.	.
8G\	.	4e-\	.	16b-/LL	4ee-\	8G\L	-na	.	.	4e-\	-ra	.	.	.	.	.	.	.	.	.	.
.	.	.	.	16b-/	.	.	.	.	.	.	.	.	.	.	.	.	.	.	.	.	.
8A-\J	.	.	.	16b-/	.	8A-\J	.	.	.	.	.	.	.	.	.	.	.	.	.	.	.
.	.	.	.	16b-/JJ	.	.	.	.	.	.	.	.	.	.	.	.	.	.	.	.	.
8B-\L	.	8r	.	16b-/LL	8r	8B-\L	o-	4B-\	-a	4r	.	4b-\	-a	.	.	.	.	.	.	.	.
.	.	.	.	16b-/	.	.	.	.	.	.	.	.	.	.	.	.	.	.	.	.	.
8A-\	.	8b-\L	.	16b-/	8ee-\L	8G\	.	.	.	.	.	.	.	.	.	.	.	.	.	.	.
.	.	.	.	16b-/JJ	.	.	.	.	.	.	.	.	.	.	.	.	.	.	.	.	.
8F\	.	8a-\	.	16b-/LL	8dd\	8F\	.	4e-\	o-	4e-\	o-	4b-\	o-	.	.	.	.	.	.	.	.
.	.	.	.	16b-/	.	.	.	.	.	.	.	.	.	.	.	.	.	.	.	.	.
8E-\J	.	8g\J	.	16b-/	8ee-\J	8E-\J	.	.	.	.	.	.	.	.	.	.	.	.	.	.	.
.	.	.	.	16b-/JJ	.	.	.	.	.	.	.	.	.	.	.	.	.	.	.	.	.
*	*	*	*	*Xtremolo	*	*	*	*	*	*	*	*	*	*	*	*	*	*	*	*	*
=10	=10	=10	=10	=10	=10	=10	=10	=10	=10	=10	=10	=10	=10	=10	=10	=10	=10	=10	=10	=10	=10
*	*	*tremolo	*	*	*	*	*	*	*	*	*	*	*	*	*	*	*	*	*	*	*
4D\	.	8d\L	.	16f/LL	8ff\L	2D\	-san-	2f\	-san-	2f\	-san-	2b-\	-san-	.	2B-/	.	2f\	.	1b-	.	1ryy
.	.	.	.	16b-/	.	.	.	.	.	.	.	.	.	.	.	.	.	.	.	.	.
.	.	8d\	.	16f/	16b-\L	.	.	.	.	.	.	.	.	.	.	.	.	.	.	.	.
!	!	!	!	!LO:TX:t=P:problem=w źródle wykreślone pół taktu	!	!	!	!	!	!	!	!	!	!	!	!	!	!	!	!	!
.	.	.	.	16b-/JJ	16cc\JJ	.	.	.	.	.	.	.	.	.	.	.	.	.	.	.	.
4BB-/	.	8d\	.	16f/LL	8b-\L	.	.	.	.	.	.	.	.	.	.	.	.	.	.	.	.
.	.	.	.	16b-/	.	.	.	.	.	.	.	.	.	.	.	.	.	.	.	.	.
.	.	8d\J	.	16f/	8b-\J	.	.	.	.	.	.	.	.	.	.	.	.	.	.	.	.
.	.	.	.	16b-/JJ	.	.	.	.	.	.	.	.	.	.	.	.	.	.	.	.	.
*	*	*	*	*tremolo	*	*	*	*	*	*	*	*	*	*	*	*	*	*	*	*	*
4E-\	.	8e-\L	.	16g/LL	8gg\L	2E-\	-na	2e-\	-na	2g\	-na	2b-\	-na	.	2e-\	.	2g\	.	.	.	.
.	.	.	.	16b-/	.	.	.	.	.	.	.	.	.	.	.	.	.	.	.	.	.
.	.	8e-\	.	16g/	16b-\L	.	.	.	.	.	.	.	.	.	.	.	.	.	.	.	.
.	.	.	.	16b-/	16cc\JJ	.	.	.	.	.	.	.	.	.	.	.	.	.	.	.	.
4BB-/	.	8e-\	.	16g/	8b-\L	.	.	.	.	.	.	.	.	.	.	.	.	.	.	.	.
.	.	.	.	16b-/	.	.	.	.	.	.	.	.	.	.	.	.	.	.	.	.	.
.	.	8e-\J	.	16g/	8b-\J	.	.	.	.	.	.	.	.	.	.	.	.	.	.	.	.
.	.	.	.	16b-/JJ	.	.	.	.	.	.	.	.	.	.	.	.	.	.	.	.	.
=11	=11	=11	=11	=11	=11	=11	=11	=11	=11	=11	=11	=11	=11	=11	=11	=11	=11	=11	=11	=11	=11
4F\	.	8f\L	.	16f/LL	8aa-\L	2F\	in	2d\	in	2a-\	in	2b-\	in	.	2f\	.	2a-\	.	1b-	.	1ryy
.	.	.	.	16b-/	.	.	.	.	.	.	.	.	.	.	.	.	.	.	.	.	.
.	.	8f\	.	16f/	16b-\L	.	.	.	.	.	.	.	.	.	.	.	.	.	.	.	.
.	.	.	.	16b-/	16cc\JJ	.	.	.	.	.	.	.	.	.	.	.	.	.	.	.	.
4BB-/	.	8f\	.	16f/	8b-\L	.	.	.	.	.	.	.	.	.	.	.	.	.	.	.	.
.	.	.	.	16b-/	.	.	.	.	.	.	.	.	.	.	.	.	.	.	.	.	.
.	.	8f\J	.	16f/	8b-\J	.	.	.	.	.	.	.	.	.	.	.	.	.	.	.	.
.	.	.	.	16b-/JJ	.	.	.	.	.	.	.	.	.	.	.	.	.	.	.	.	.
4E-\	.	8e-\L	.	16g/LL	8gg\L	2E-\	ex-	2e-\	ex-	2g\	ex-	2b-\	ex-	.	2e-\	.	2g\	.	.	.	.
.	.	.	.	16b-/	.	.	.	.	.	.	.	.	.	.	.	.	.	.	.	.	.
.	.	8e-\	.	16g/	16b-\L	.	.	.	.	.	.	.	.	.	.	.	.	.	.	.	.
.	.	.	.	16b-/	16cc\JJ	.	.	.	.	.	.	.	.	.	.	.	.	.	.	.	.
4BB-/	.	8e-\	.	16g/	8b-\L	.	.	.	.	.	.	.	.	.	.	.	.	.	.	.	.
.	.	.	.	16b-/	.	.	.	.	.	.	.	.	.	.	.	.	.	.	.	.	.
.	.	8e-\J	.	16g/	8b-\J	.	.	.	.	.	.	.	.	.	.	.	.	.	.	.	.
.	.	.	.	16b-/JJ	.	.	.	.	.	.	.	.	.	.	.	.	.	.	.	.	.
=12	=12	=12	=12	=12	=12	=12	=12	=12	=12	=12	=12	=12	=12	=12	=12	=12	=12	=12	=12	=12	=12
4D\	.	8d\L	.	16f/LL	8ff\L	2D\	-cel-	2f\	-cel-	2f\	-cel-	2b-\	-cel-	.	2B-/	.	2f\	.	1b-	.	1ryy
.	.	.	.	16f/	.	.	.	.	.	.	.	.	.	.	.	.	.	.	.	.	.
.	.	8d\	.	16f/	16b-\L	.	.	.	.	.	.	.	.	.	.	.	.	.	.	.	.
.	.	.	.	16f/	16cc\JJ	.	.	.	.	.	.	.	.	.	.	.	.	.	.	.	.
4BB-/	.	8d\	.	16f/	8b-\L	.	.	.	.	.	.	.	.	.	.	.	.	.	.	.	.
.	.	.	.	16f/	.	.	.	.	.	.	.	.	.	.	.	.	.	.	.	.	.
.	.	8d\J	.	16f/	8b-\J	.	.	.	.	.	.	.	.	.	.	.	.	.	.	.	.
.	.	.	.	16f/JJ	.	.	.	.	.	.	.	.	.	.	.	.	.	.	.	.	.
4E-\	.	8e-\L	.	16g/LL	8gg\L	2E-\	-sis	4e-\	-sis	4g\	-sis	4b-\	-sis	.	2e-\	.	2g\	.	.	.	.
.	.	.	.	16g/	.	.	.	.	.	.	.	.	.	.	.	.	.	.	.	.	.
.	.	8e-\	.	16g/	16b-\L	.	.	.	.	.	.	.	.	.	.	.	.	.	.	.	.
.	.	.	.	16g/	16cc\JJ	.	.	.	.	.	.	.	.	.	.	.	.	.	.	.	.
4BB-/	.	8e-\	.	16g/	8b-\L	.	.	4e-\	o-	4g\	o-	4b-\	o-	.	.	.	.	.	.	.	.
.	.	.	.	16g/	.	.	.	.	.	.	.	.	.	.	.	.	.	.	.	.	.
.	.	8e-\J	.	16g/	8b-\J	.	.	.	.	.	.	.	.	.	.	.	.	.	.	.	.
.	.	.	.	16g/JJ	.	.	.	.	.	.	.	.	.	.	.	.	.	.	.	.	.
=13	=13	=13	=13	=13	=13	=13	=13	=13	=13	=13	=13	=13	=13	=13	=13	=13	=13	=13	=13	=13	=13
*tremolo	*	*	*	*	*	*	*	*	*	*	*	*	*	*	*	*	*	*	*	*	*
8F\L	.	8f\L	.	16a-/LL	8aa-\L	2F\	in	2d\	-san-	2a-\	-san-	2b-\	-san-	.	2f\	.	2a-\	.	1b-	.	1ryy
.	.	.	.	16a-/	.	.	.	.	.	.	.	.	.	.	.	.	.	.	.	.	.
8F\J	.	8f\	.	16a-/	16b-\L	.	.	.	.	.	.	.	.	.	.	.	.	.	.	.	.
.	.	.	.	16a-/	16cc\JJ	.	.	.	.	.	.	.	.	.	.	.	.	.	.	.	.
8D\L	.	8f\	.	16a-/	8b-\L	.	.	.	.	.	.	.	.	.	.	.	.	.	.	.	.
.	.	.	.	16a-/	.	.	.	.	.	.	.	.	.	.	.	.	.	.	.	.	.
8D\J	.	8f\J	.	16a-/	8b-\J	.	.	.	.	.	.	.	.	.	.	.	.	.	.	.	.
.	.	.	.	16a-/JJ	.	.	.	.	.	.	.	.	.	.	.	.	.	.	.	.	.
8BB-/L	.	8d\L	.	16f/LL	16aa-\LL	2BB-/	ex-	2d\	-na	2f\	-na	2b-\	-na	.	2B-/	.	2f\	.	.	.	.
.	.	.	.	16f/	16gg\	.	.	.	.	.	.	.	.	.	.	.	.	.	.	.	.
8BB-/J	.	8d\	.	16f/	16ff\	.	.	.	.	.	.	.	.	.	.	.	.	.	.	.	.
.	.	.	.	16f/	16ee-\JJ	.	.	.	.	.	.	.	.	.	.	.	.	.	.	.	.
8D\L	.	8d\	.	16f/	16dd\LL	.	.	.	.	.	.	.	.	.	.	.	.	.	.	.	.
.	.	.	.	16f/	16cc\	.	.	.	.	.	.	.	.	.	.	.	.	.	.	.	.
8D\J	.	8d\J	.	16f/	16b-\	.	.	.	.	.	.	.	.	.	.	.	.	.	.	.	.
.	.	.	.	16f/JJ	16a-\JJ	.	.	.	.	.	.	.	.	.	.	.	.	.	.	.	.
=14	=14	=14	=14	=14	=14	=14	=14	=14	=14	=14	=14	=14	=14	=14	=14	=14	=14	=14	=14	=14	=14
8F\L	.	8e-\L	.	16g/LL	16g/LL	4E-\	-cel-	4e-\	in	4g\	in	2.ee-\	in	.	2e-\	.	2g\	.	4ee-\	.	1ryy
.	.	.	.	16g/	16g/	.	.	.	.	.	.	.	.	.	.	.	.	.	.	.	.
8F\J	.	8e-\J	.	16g/	16g/	.	.	.	.	.	.	.	.	.	.	.	.	.	.	.	.
.	.	.	.	16g/	16g/JJ	.	.	.	.	.	.	.	.	.	.	.	.	.	.	.	.
*	*	*tremolo	*	*	*	*	*	*	*	*	*	*	*	*	*	*	*	*	*	*	*
8B-\L	.	8c\L	.	16g/	16ee-\LL	4c\	.	4c\	ex-	4g\	ex-	.	.	.	.	.	.	.	4g/	.	.
.	.	.	.	16g/	16ee-\	.	.	.	.	.	.	.	.	.	.	.	.	.	.	.	.
8B-\J	.	8c\	.	16g/	16ee-\	.	.	.	.	.	.	.	.	.	.	.	.	.	.	.	.
.	.	.	.	16g/JJ	16ee-\JJ	.	.	.	.	.	.	.	.	.	.	.	.	.	.	.	.
8A-\L	.	8c\	.	16f/LL	16ee-\LL	4A-\	.	(4c\	-cel-	2f\	-cel-	.	.	.	2r	.	2f\	.	2f/	.	.
.	.	.	.	16f/	16ee-\	.	.	.	.	.	.	.	.	.	.	.	.	.	.	.	.
8A-\J	.	8c\J	.	16f/	16ee-\	.	.	.	.	.	.	.	.	.	.	.	.	.	.	.	.
.	.	.	.	16f/	16ee-\JJ	.	.	.	.	.	.	.	.	.	.	.	.	.	.	.	.
*	*	*Xtremolo	*	*	*	*	*	*	*	*	*	*	*	*	*	*	*	*	*	*	*
8B-\L	.	8B-\L	.	16f/	16dd\LL	4c\	.	4B-\)	.	.	.	4dd\	ex-	.	.	.	.	.	.	.	.
.	.	.	.	16f/	16dd\	.	.	.	.	.	.	.	.	.	.	.	.	.	.	.	.
8B-\J	.	8B-\J	.	16f/	16dd\	.	.	.	.	.	.	.	.	.	.	.	.	.	.	.	.
.	.	.	.	16f/JJ	16dd\JJ	.	.	.	.	.	.	.	.	.	.	.	.	.	.	.	.
*Xtremolo	*	*	*	*Xtremolo	*Xtremolo	*	*	*	*	*	*	*	*	*	*	*	*	*	*	*	*
=15	=15	=15	=15	=15	=15	=15	=15	=15	=15	=15	=15	=15	=15	=15	=15	=15	=15	=15	=15	=15	=15
*	*	*	*	*	*^	*	*	*	*	*	*	*	*	*	*	*	*	*	*	*	*
4e-\	.	4B-/	.	4g 4B-/	4ee-/	4g\	2.E-\	-sis	2B-\	-sis	4g\	.	(4ee-\	-cel-	.	4B-/	.	4g\	.	4g/	.	1ryy
4B-\	.	4B-/	.	4f 4B-/	4dd/	4f\	.	.	.	.	4f\	.	4dd\)	.	.	4e-\	.	4f\	.	4f/	.	.
4E-\	.	4B-/	.	4g 4B-/	4ee-/	4g\	.	.	2r	.	4g\	-sis	4ee-\	-sis	.	4B-/	.	4g\	.	4g/	.	.
4r	.	4r	.	4r	4r	4ryy	4r	.	.	.	4r	.	4r	.	.	4r	.	4r	.	4r	.	.
*	*	*	*	*	*v	*v	*	*	*	*	*	*	*	*	*	*	*	*	*	*	*	*
==	==	==	==	==	==	==	==	==	==	==	==	==	==	==	==	==	==	==	==	==	==
*-	*-	*-	*-	*-	*-	*-	*-	*-	*-	*-	*-	*-	*-	*-	*-	*-	*-	*-	*-	*-	*-
!!!system-decoration: [(s1,s2)][(s3,s4)][(s5,s6,s7,s8)][(s9,s10,s11)][(s12)]
!!!RDF**kern: > = above
!!!RDF**kern: < = below
!!!RDF**dynam: > = "Dim:", fontstyle= "bold-italic"
!!!RDF**dynam: < = "Cres:", fontstyle= "bold-italic"
!!!RDF**kern: | = vertical stroke
!!!RDF**kern: N = linked
!!!RDF**kern: i = editorial accidental
!!!RDF**kern: l = terminal long
!!!ENC: Andrzej Gręziak
!!!END: 2020-09-28
!!!EED: Wojciech Jakubiak-Danek
!!!EEV: 2022-02-02
